X: 20557
T: John Murray Of Lochee
R: reel
M: 4/4
K: Amajor
|:EAAG A2 (AF)|EAAG ABcA|FBBA B2 (bc)|dcBA GB B2|
(EA)AG A2 (AF)|EAAG ABcA|d2 (cB) cecA|1 GBed cAA F:|2 GBed cAA B||
|:c2 (cB) cAAB|(3cBA eA cAAc|d2 (dc) dcBA|Gagf edcB|
c2 (cB) cAAB|(3cBA eA cAAc|d2 (cB) cecA|1 GBed cAA B:|2 GBed cA A2||

